X: 39374
T: Tanga's
R: reel
M: 4/4
K: Dmajor
dAAF GFEG|FDFA dAFD|CDEF GEed|cAGE D2 FA:|
dcde fefg|a^gab a=gec|dcde fefg|aA (3AAA ABcA|
dcde fefg|a^gab a=gec|dfed cABc|dD (3DDD DABc:|

